X: 2156
T: Şehnâz Peşrev
C: Kemânî Ali Ağa
O: Turkey
F: http://compmusic.upf.edu/node/140
N: sehnaz--pesrev--zencir----kemani_ali_aga
N: makam= sehnaz
N: form= pesrev
N: usul= zencir = 120/4
M: 120/4
L: 1/16
K: C _7/8B ^1/4f ^c ^g
Q: 1/4=78
%%MIDI tuningsystem comma53
g4 a8 g4  | a2 =b2 a2 g2 f3/2g/ fe d2 c2  | \
w:  1. HANE  |   | 
d12 a2 =g2  | a6 ^3/4f2 =g2 a_1/4b ag fg  | 
w:   |   | 
e6 a2 =g2 f2 e2 d2  | c6 A2 B2 cd ed cB  | \
w:   |   | 
A8 z4 a2 =g2  | a6 ^3/4f2 =g2 a_1/4b ag fg  | 
w:   |   | 
e8 ef ed c2 d2  | e2 A2 B2 c2 d2 e2 f2 g2  | \
w:   |   | 
a8 z4 =g2 a2  | =b2 =c'2 b2 a2 a3/2b/ a=g ^3/4f^e ^f2  | 
w:   |   | 
z2 =g4 g2 g4 ^3/4f2 g2  | a2 =b2 a2 =g2 a3/2b/ ag ^3/4fe d2  | \
w:   |   | 
z2 ^3/4f4 f2 f4 d2 ef  | 
w:   | 
=g6 a2 {=b}ag ^3/4fe f2 g2  | e2 =f2 d2 e2 c2 A2 B2 c2  | \
w:   |   | 
d3f e2 d2 c3B A4  | 
w:   | 
^3/4F=G FG FG FG A8  | AB2A BA f2 e2 d2 c2 B2  | \
w:  TESLİM  |   | 
A6 a2 =g2 =f2 e2 d2  | 
w:   | 
c6 A2 B2 cd ed cB  | A6 B2 c4 d4  | e2 dc B2 c2 d^f _7/8e4 d.c  | 
w:   |   |   | 
cB BA A=G G^3/4F G4 A4  | B3/2c/ BA BA f2 e2 d2 c2 B2  | 
w:   |   | 
A6 a2 =g2 =f2 e2 d2  | c6 A2 B2 cd ed cB  | \
w:   |   | 
A6 B2 c4 d4  | e4 f4 g4 a4  | 
w:  2. HANEYE  |   | 
=b8 a8  | =b4 a4 {b}b2 a2 g4  | ge fg a2 =b2 a4 b4  | \
w:  2. HANE  |   |   | 
=c'2 =b2 a4 b4 a2 g2  | 
w:   | 
a8 a2 e2 f2 g2  | a2 ag a2 ag a2 ag fe d2  | \
w:   |   | 
=c'8 =b8  | e3/2f/ ed e6 =g2 =fe dc  | 
w:   |   | 
d2 A2 B2 c2 d8  | z2 =g4 g2 g4 ^3/4f2 g2  | \
w:   |   | 
a6 e2 ef ga gf fe  | 
w:   | 
e8 ef ed c2 d2  | e2 A2 B2 c2 d2 e2 f2 g2  | \
w:   |   | 
a8 z4 =g2 a2  | =b2 =c'2 b2 a2 a3/2b/ a=g ^3/4f^e ^f2  | 
w:   |   | 
z2 =g4 g2 g4 ^3/4f2 g2  | a2 =b2 a2 =g2 a3/2b/ ag ^3/4fe d2  | \
w:   |   | 
z2 ^3/4f4 f2 f4 d2 ef  | 
w:   | 
=g6 a2 {=b}ag ^3/4fe f2 g2  | e2 =f2 d2 e2 c2 A2 B2 c2  | \
w:   |   | 
d3f e2 d2 c3B A4  | 
w:   | 
^3/4F=G FG FG FG A8  | AB2A BA f2 e2 d2 c2 B2  | \
w:  TESLİM  |   | 
A6 a2 =g2 =f2 e2 d2  | 
w:   | 
c6 A2 B2 cd ed cB  | A6 B2 c4 d4  | e2 dc B2 c2 d^f _7/8e4 d.c  | 
w:   |   |   | 
cB BA A=G G^3/4F G4 A4  | B3/2c/ BA BA f2 e2 d2 c2 B2  | 
w:   |   | 
A6 a2 =g2 =f2 e2 d2  | c6 A2 B2 cd ed cB  | \
w:   |   | 
A8 AB A=G ^3/4F2 G2  | 
w:  3. HANEYE  | 
AB c4 BA A8  | A4 d4 c4 d4  | e4 d4 e8  | \
w:   |  3. HANE  |   | 
e4 d2 e2 d4 =g4  | ^3/4f4 =g4 a4 g2 ^1/4f2  | 
w:   |   | 
e4 ^3/4f2 =g2 =b2 a2 g2 f2  | e3/2d/ e^f e2 d2 c3=B A4  | \
w:   |   | 
=B8 A8  | =B4 A2 B2 A4 d4  | 
w:   |   | 
c4 d2 c2 =B4 ^1/4c2 B2  | A6 =B2 A4 B4  | \
w:   |   | 
=B4 A2 B2 A4 d4  | c4 d2 c2 =B4 ^1/4c2 B2  | 
w:   |   | 
A2 =B2 A2 =G2 ^3/4FG FE D4  | d8 e4 a2 =g2  | \
w:   |   | 
a6 ^3/4f2 =g4 e4  | f4 d4 e2 f2 e2 d2  | 
w:   |   | 
c6 A2 B4 c4  | d3f e2 d2 c3/2d/ cB A4  | \
w:   |   | 
^3/4F=G FG FG FG A8  | 
w:  TESLİM  | 
AB2A BA f2 e2 d2 c2 B2  | A6 a2 =g2 =f2 e2 d2  | \
w:   |   | 
c6 A2 B2 cd ed cB  | 
w:   | 
A6 B2 c4 d4  | e2 dc B2 c2 d^f _7/8e4 d.c  | \
w:   |   | 
cB BA A=G G^3/4F G4 A4  | 
w:   | 
B3/2c/ BA BA f2 e2 d2 c2 B2  | A6 a2 =g2 =f2 e2 d2  | \
w:   |   | 
c6 A2 B2 cd ed cB  | 
w:   | 
A8 AB A=G ^3/4F2 G2  | AB c4 BA A4 z4  | \
w:  4. HANEYE  |   | 
^F8 =G2 AB AG FG  | 
w:  4. HANE  | 
A8 z8  | .A4 .B4 .c4 .d4  | .B4 .c4 .d4 .e4  | \
w:   |   |   | 
d4 e4 ^f2 =g2 a3/2=b/ ag  | ^f8 f=g f^e d2 e2  | 
w:   |   | 
^f^e dc _1/4BA =G^F F8  | a3/2=b/ a=g .a2 .b2 a3/2b/ ag ^3/4f4  | \
w:   |   | 
=g3/2a/ g^3/4f g2 a2 g3/2a/ gf e4  | 
w:   | 
^3/4f4 f2 =g2 f4 d4  | a2 =b2 a2 =g2 a3/2b/ ag fe d2  | \
w:   |   | 
z2 ^3/4f4 f2 f4 d2 ef  | 
w:   | 
=g6 a2 ag ^3/4fe f2 g2  | e2 =f2 d2 e2 c2 A2 B2 c2  | \
w:   |   | 
d3/2c/ df e2 d2 c3/2d/ cB A4  | 
w:   | 
^3/4F=G FG FG FG A8  | AB2A BA f2 e2 d2 c2 B2  | \
w:  TESLİM  |   | 
A6 a2 =g2 =f2 e2 d2  | 
w:   | 
c6 A2 B2 cd ed cB  | A6 B2 c4 d4  | e2 dc B2 c2 d^f _7/8e4 d.c  | 
w:   |   |   | 
cB BA A=G G^3/4F G4 A4  | B3/2c/ BA BA f2 e2 d2 c2 B2  | 
w:   |   | 
A6 a2 =g2 =f2 e2 d2  | c6 A2 B2 cd ed cB  | \
w:   |   | 
A8 AB A=G ^3/4F2 G2  | 
w:  KARAR  | 
AB c4 BA A8  | |


